components/ui-node-icon/src/csvFile/csvFile.small.svg

<svg width="16" height="16" viewBox="0 0 16 16" fill="none" xmlns="http://www.w3.org/2000/svg">
  <path fill-rule="evenodd" clip-rule="evenodd" d="M8 2H3L3 14H4H11H12C12 14.5523 11.5523 15 11 15H3C2.44772 15 2 14.5523 2 14V2C2 1.44772 2.44772 1 3 1H8L12 5V7H11V5L9 5C8.44772 5 8 4.55228 8 4V2ZM6 9C6 8.44772 6.44772 8 7 8H8V9H7V11H8V12H7C6.44772 12 6 11.5523 6 11V9ZM11 8C9.89543 8 9 8.89543 9 10H10C10 9.44772 10.4477 9 11 9H12V8H11ZM12 10C12 11.1046 11.1046 12 10 12H9V11H10C10.5523 11 11 10.5523 11 10H12ZM14 8H13V10.1514L14.084 11.7774C14.1767 11.9164 14.3328 12 14.5 12C14.6672 12 14.8233 11.9164 14.916 11.7774L16 10.1514V8H15V9.84861L14.5 10.5986L14 9.84861V8Z" fill="currentColor"/>
</svg>

<svg xmlns="http://www.w3.org/2000/svg" width="16" height="16" fill="none" viewBox="0 0 16 16">
  <path fill="currentColor" fill-rule="evenodd" d="M8 2H3v12h9a1 1 0 0 1-1 1H3a1 1 0 0 1-1-1V2a1 1 0 0 1 1-1h5l4 4v2h-1V5H9a1 1 0 0 1-1-1V2ZM6 9a1 1 0 0 1 1-1h1v1H7v2h1v1H7a1 1 0 0 1-1-1V9Zm5-1a2 2 0 0 0-2 2h1a1 1 0 0 1 1-1h1V8h-1Zm1 2a2 2 0 0 1-2 2H9v-1h1a1 1 0 0 0 1-1h1Zm2-2h-1v2.151l1.084 1.626a.5.5 0 0 0 .832 0L16 10.151V8h-1v1.849l-.5.75-.5-.75V8Z" clip-rule="evenodd"/>
</svg>
